assets/labview/plain.svg

<svg viewBox="0 0 128 128" xmlns="http://www.w3.org/2000/svg"><path d="m29.76 22.46c-4.42-.09-8.06 2.99-8.06 6.81v12.53h-18.16a3.54 3.54 0 0 0 -3.54 3.54v1.35a3.54 3.54 0 0 0 3.54 3.53h18.16v27.65h-18.16a3.54 3.54 0 0 0 -3.54 3.54v1.34a3.54 3.54 0 0 0 3.54 3.54h18.16v12.42c0 5.25 6.56 8.53 11.81 5.91l69.49-34.72c.89-.44 1.61-1.01 2.2-1.64h19.26a3.54 3.54 0 0 0 3.54-3.54v-1.34a3.54 3.54 0 0 0 -3.54-3.54h-19.15c-.6-.68-1.37-1.28-2.31-1.75l-69.49-34.72a8.856 8.856 0 0 0 -3.75-.91zm16.68 26.55h6.15v11.99h11.95v6.08h-11.95v11.98h-6.15v-11.98h-11.95v-6.08h11.96z"/></svg>

<svg xmlns="http://www.w3.org/2000/svg" viewBox="0 0 128 128"><path d="M29.76 22.46c-4.42-.09-8.06 2.99-8.06 6.81V41.8H3.54A3.54 3.54 0 0 0 0 45.34v1.35a3.54 3.54 0 0 0 3.54 3.53H21.7v27.65H3.54A3.54 3.54 0 0 0 0 81.41v1.34a3.54 3.54 0 0 0 3.54 3.54H21.7v12.42c0 5.25 6.56 8.53 11.81 5.91L103 69.9c.89-.44 1.61-1.01 2.2-1.64h19.26a3.54 3.54 0 0 0 3.54-3.54v-1.34a3.54 3.54 0 0 0-3.54-3.54h-19.15c-.6-.68-1.37-1.28-2.31-1.75L33.51 23.37a8.86 8.86 0 0 0-3.75-.91m16.68 26.55h6.15V61h11.95v6.08H52.59v11.98h-6.15V67.08H34.49V61h11.96z"/></svg>
